!!!!SEGMENT: pl-wn--sd-xvi-qu-273--038_gomolka-mikolaj--czasu-gniewu-i-czasu-twej-popedliwosci.krn
!!!cenid: 15xx:243
!!!COM: Gomółka, Mikołaj
!!!COM-rismid: pe30013343
!!!CDT: ~1535->1591/04/30
!!!CNT: Polish
!!!GTL: Melodiae na psalterz polski
!!!OTL: XXXVIII. Czasu gniewu i czasu Twej popędliwości
!!!PDT: 1580
!!!AGN: Sacred
!!!SMS-siglum: PL-Wn
!!!SMS-shelfmark: SD XVI.Qu.273
!!!SMS-shelfwork: 038 G
!!!NIFC-rismid:
!!!ONB-nifc: Melodiae na psalterz polski
**kern	**text	**text	**kern	**text	**text	**kern	**text	**text	**kern	**text	**text
*part4	*part4	*part4	*part3	*part3	*part3	*part2	*part2	*part2	*part1	*part1	*part1
*staff4	*staff4	*staff4	*staff3	*staff3	*staff3	*staff2	*staff2	*staff2	*staff1	*staff1	*staff1
*clefF4	*	*	*clefC4	*	*	*clefC3	*	*	*clefC1	*	*
*k[b-]	*	*	*k[b-]	*	*	*k[b-]	*	*	*k[b-]	*	*
*g:	*	*	*g:	*	*	*g:	*	*	*g:	*	*
*M4/2	*	*	*M4/2	*	*	*M4/2	*	*	*M4/2	*	*
*met(C|)	*	*	*met(C|)	*	*	*met(C|)	*	*	*met(C|)	*	*
*>[A,A,B,B]	*>[A,A,B,B]	*>[A,A,B,B]	*>[A,A,B,B]	*>[A,A,B,B]	*>[A,A,B,B]	*>[A,A,B,B]	*>[A,A,B,B]	*>[A,A,B,B]	*>[A,A,B,B]	*>[A,A,B,B]	*>[A,A,B,B]
*>A	*>A	*>A	*>A	*>A	*>A	*>A	*>A	*>A	*>A	*>A	*>A
*	*verse[1]	*verse[2]	*	*verse[1]	*verse[2]	*	*verse[1]	*verse[2]	*	*verse[1]	*verse[2]
=1-	=1-	=1-	=1-	=1-	=1-	=1-	=1-	=1-	=1-	=1-	=1-
1D	Cӡá-	Nie	1A	Cӡá-	Nie	1d	Cӡá-	Nie	1d	Cӡá-	Nie
2BB-	-ʃu	r(ácӡ)	2B-	-ʃu	r(ácӡ)	2.d	-ʃu	r(ácӡ)	2f	-ʃu	r(ácӡ)
2GG	gnie-	mię/	2B-	gnie-	mię/	.	.	.	2g/	gnie-	mię/
.	.	.	.	.	.	4e	gnie-	mię:	.	.	.
=2-	=2-	=2-	=2-	=2-	=2-	=2-	=2-	=2-	=2-	=2-	=2-
2D/	-wu/	pá-	2A	(-wu)	pá-	2.f	-wu/	pá-	2a	-wu/	pá-
2D/	y	-nie/	2d	y	-nie/	.	.	.	2a	y	-nie/
.	.	.	.	.	.	4g	y	-(nie/)	.	.	.
2F	cӡá-	ťá-	2c	cӡá-	ťá-	2a	cӡá-	ťá-	2a	cӡá-	ťá-
2G	-ʃu	-ráć	2B-	-ʃu	-r(áć)	4g	(-ʃu)	-ráć	2b-	-ʃu	-ráć
.	.	.	.	.	.	4f	.	.	.	.	.
=3-	=3-	=3-	=3-	=3-	=3-	=3-	=3-	=3-	=3-	=3-	=3-
2A	twéy	ӡmo-	2c	twéy	ӡmo-	4e	tw(éy)	ӡmo	2a	twéy	ӡmo-
.	.	.	.	.	.	8dL	.	.	.	.	.
.	.	.	.	.	.	8eJ	.	.	.	.	.
2F	po-	-ich	4A	po-	-ich	2.f	po-	(ich)	4cc	po-	-ich
.	.	.	4B-	.	.	.	.	.	4b-	.	.
2F	-pęd-	wʃᴣe-	4c	-pęd-	wʃᴣe	.	.	.	4a	-pęd-	wʃᴣe
.	.	.	4B-	.	.	4e	-pęd-	wʃᴣe-	4g	.	.
2G	-li-	-tecӡ-	4A/	-li-	tecӡ	4d	-li-	-tecӡ	1g	-li-	tecӡ-
.	.	.	4G	.	.	4c	.	.	.	.	.
2ryy	.	.	2ryy	.	.	2ryy	.	.	.	.	.
=4-	=4-	=4-	=4-	=4-	=4-	=4-	=4-	=4-	=4-	=4-	=4-
1D	-woś-	-noś-	1A	-woś-	noś-	2.d	-woś-	noś	2ryy	.	.
.	.	.	.	.	.	.	.	.	2f	-woś-	-noś-
.	.	.	.	.	.	4c	.	.	.	.	.
1GG	-ći/	-ći/	1G	-ći/	-ći/	1B-	-ći/	ći/	1g	-ći/	-ći/
=5:!:-	=5-	=5-	=5-	=5-	=5-	=5-	=5-	=5-	=5-	=5-	=5-
*>B	*	*	*>B	*	*	*>B	*	*	*>B	*	*
2r	.	.	2r	.	.	2r	.	.	2r	.	.
2G	Tťwią	.	2d	Tťwią	.	4G	Tťwią	.	2b-	Tťwią	.
.	.	.	.	.	.	4A	.	.	.	.	.
2G	we	.	2d	we	.	4B-	we	.	2b-	we	.
.	.	.	.	.	.	4c/	.	.	.	.	.
2F	mnie	.	4A	mnie	.	4d	mnie	.	2a	mnie	.
.	.	.	4B-	.	.	8cL	.	.	.	.	.
.	.	.	.	.	.	8dJ	.	.	.	.	.
!!LO:PG:g=original
=6-	=6-	=6-	=6-	=6-	=6-	=6-	=6-	=6-	=6-	=6-	=6-
2C	ʃtrӡa-	.	2c	ʃtrӡa-	.	4e	ʃtrӡa-	.	4g	ʃtrӡa-	.
.	.	.	.	.	.	4d	.	.	4f	.	.
2D	-ły	.	2A/	-ły	.	4d	-ły	.	4f	-ły	.
.	.	.	.	.	.	8cL	.	.	8eL	.	.
.	.	.	.	.	.	8B-J	.	.	8dJ	.	.
1AA	two-	.	2.A/	two-	.	4c#X	two-	.	1e	two-	.
.	.	.	.	.	.	2d	.	.	.	.	.
.	.	.	4G	.	.	4c#	.	.	.	.	.
=7-	=7-	=7-	=7-	=7-	=7-	=7-	=7-	=7-	=7-	=7-	=7-
2BB-	-je/	.	2F	-je/	.	2d	-je/	.	2d	-je/	.
2FF	á	.	2A	á	.	2c	á	.	2f	á	.
2GG	nie_uch-	.	2.G	nie_uch-	.	2B-	nie_uch-	.	4eX	nie_uch-	.
.	.	.	.	.	.	.	.	.	4d	.	.
2GG	-ro-	.	.	.	.	2B-	-ro-	.	4c#X	-ro-	.
.	.	.	4F	-ro-	.	.	.	.	4B-	.	.
=8-	=8-	=8-	=8-	=8-	=8-	=8-	=8-	=8-	=8-	=8-	=8-
2AA	-nio-	.	4E	-nio-	.	1A	-nio_na	.	4c#X	-nio-	.
.	.	.	4D	.	.	.	.	.	2d	-na	.
2AA	-na	.	2E	(-na)	.	.	.	.	.	.	.
.	.	.	.	.	.	.	.	.	4c#X	.	.
2D	Rę-	.	2D	Rę-	.	2A	Rę-	.	2d	Rę-	.
4BB-	-ťá	.	2d	-ťá	.	2f	-ťá	.	2b-	-ťá	.
4C	.	.	.	.	.	.	.	.	.	.	.
=9-	=9-	=9-	=9-	=9-	=9-	=9-	=9-	=9-	=9-	=9-	=9-
4D	ná-	.	2d	ná-	.	2f	ná-	.	2b-	ná-	.
4E	.	.	.	.	.	.	.	.	.	.	.
2F	-de-	.	2c	-de	.	2f	-de-	.	2a	-de-	.
2G	mną	.	1B-	(mną)	.	1d	mną	.	1g	mną	.
2GG	.	.	.	.	.	.	.	.	.	.	.
=10-	=10-	=10-	=10-	=10-	=10-	=10-	=10-	=10-	=10-	=10-	=10-
2D	two-	.	2A	two-	.	2d	two-	.	2f	two-	.
2D	(-já)	.	2d	-já	.	2f	-já	.	4a	-já	.
.	.	.	.	.	.	.	.	.	4b-	.	.
2E	ӡmoc-	.	2B-	ӡmoc-	.	2e-X	ӡmoc-	.	4a	ӡmoc-	.
.	.	.	.	.	.	.	.	.	4g	.	.
2C	-ni.(o)-	.	2c	-nio-	.	2e-	-nio-	.	1g	-nio-	.
2ryy	.	.	2ryy	.	.	2ryy	.	.	.	.	.
=11-	=11-	=11-	=11-	=11-	=11-	=11-	=11-	=11-	=11-	=11-	=11-
1D	.	.	1A	.	.	2.d	.	.	2ryy	.	.
.	.	.	.	.	.	.	.	.	2f	.	.
.	.	.	.	.	.	4c	.	.	.	.	.
!!LO:N:vis=00
1GG/;	(-na)	.	1G/	-na.	.	1B-/	-na.	.	1g	-na.	.
=-	=-	=-	=-	=-	=-	=-	=-	=-	=-	=-	=-
*-	*-	*-	*-	*-	*-	*-	*-	*-	*-	*-	*-
!!!RDF**kern: l = terminal long
!!!system-decoration: s1,s2,s3,s4
!!!RDF**kern: i = editorial accidental
!!!ENC:Anna Matuszewska
!!!END:2020-02-07
!!!URL-scan: https://polona.pl/item/melodiae-na-psalterz-polski,Nzk3MTM4ODQ/98 Scan on Polona
!!!IIIF: https://polona.pl/iiif/item/Nzk3MTM4ODQ/manifest.json
